svg/trip_unit.svg

<svg width="24" height="24" viewBox="0 0 24 24" xmlns="http://www.w3.org/2000/svg"><path d="M18 2H6c-1.1 0-2 .9-2 2v16c0 1.1.9 2 2 2h12c1.1 0 2-.9 2-2V4c0-1.1-.9-2-2-2zm-5 2h5v4h-5V4zm-3 16H6v-6h2v4h2v2zm8 0h-4v-4h-3v-3.6l-5-5V4h2v2.6l5 5V14h3v4h2v2z"/></svg>

<svg width="24" height="24" viewBox="0 0 24 24"  xmlns="http://www.w3.org/2000/svg">
<path d="M18 2H6C4.9 2 4 2.9 4 4V20C4 21.1 4.9 22 6 22H18C19.1 22 20 21.1 20 20V4C20 2.9 19.1 2 18 2ZM13 4H18V8H13V4ZM10 20H6V14H8V18H10V20ZM18 20H14V16H11V12.4L6 7.4V4H8V6.6L13 11.6V14H16V18H18V20Z" />
</svg>
